X: 360
T: Riben guizi de dapao
L: 1/8
M: 2/4
K: G
A2d2 [I:setbarnb 1]| 
A B A G | 
A G F E | 
D> D D E | 
D4 | 
G2G A | 
d2e d | 
c BA2 | 
G Ed2 | 
G2G A | 
d2A B | 
A G F E | 
D2D E | 
GA2E | 
D4 |]

@@@ Tune index: 9234
